packages/foundations/assets/icons/functional/images/audio & video/subtitles_28.svg

<svg width="28" height="28" viewBox="0 0 28 28" fill="none" xmlns="http://www.w3.org/2000/svg">
<g clip-path="url(#clip0_184_410)">
<path fill-rule="evenodd" clip-rule="evenodd" d="M23.625 5.25051C25.047 5.25051 26.25 6.29051 26.25 7.87551V20.1255C26.25 21.5475 25.21 22.7505 23.625 22.7505H4.375C2.98 22.7505 1.75 21.6565 1.75 20.2905V7.87451C1.75 6.47951 2.79 5.24951 4.375 5.24951L23.625 5.25051ZM23.625 7.00051H4.375C3.883 7.00051 3.5 7.32851 3.5 7.87551V20.1255C3.5 20.5635 3.828 21.0005 4.266 21.0005H23.625C24.063 21.0005 24.5 20.7275 24.5 20.1255V7.87551C24.5 7.43751 24.227 7.00051 23.625 7.00051ZM6.125 17.5005C6.125 17.0905 6.507 16.6405 7 16.6385L16.625 16.6255C17.117 16.6255 17.5 17.0085 17.5 17.5005C17.5 17.9385 17.227 18.3755 16.625 18.3755H7C6.88468 18.377 6.77024 18.3554 6.66341 18.3119C6.55658 18.2685 6.45954 18.2041 6.37799 18.1225C6.29644 18.041 6.23204 17.9439 6.1886 17.8371C6.14515 17.7303 6.12352 17.6158 6.125 17.5005ZM6.125 14.0005C6.125 13.5625 6.453 13.1255 7 13.1255H14C14.492 13.1255 14.875 13.5085 14.875 14.0005C14.875 14.4385 14.492 14.8755 14 14.8755H7C6.88468 14.877 6.77024 14.8554 6.66341 14.8119C6.55658 14.7685 6.45954 14.7041 6.37799 14.6225C6.29644 14.541 6.23204 14.4439 6.1886 14.3371C6.14515 14.2303 6.12352 14.1158 6.125 14.0005ZM16.625 14.0005C16.625 13.5625 16.898 13.1255 17.5 13.1255H21C21.492 13.1255 21.875 13.5085 21.875 14.0005C21.875 14.4385 21.602 14.8755 21 14.8755H17.5C17.3847 14.877 17.2702 14.8554 17.1634 14.8119C17.0566 14.7685 16.9595 14.7041 16.878 14.6225C16.7964 14.541 16.732 14.4439 16.6886 14.3371C16.6451 14.2303 16.6235 14.1158 16.625 14.0005ZM19.25 17.5005C19.25 17.0625 19.633 16.6255 20.125 16.6255H21C21.492 16.6255 21.875 17.0085 21.875 17.5005C21.875 17.9385 21.492 18.3755 21 18.3755H20.125C20.0097 18.377 19.8952 18.3554 19.7884 18.3119C19.6816 18.2685 19.5845 18.2041 19.503 18.1225C19.4214 18.041 19.357 17.9439 19.3136 17.8371C19.2701 17.7303 19.2485 17.6158 19.25 17.5005Z" fill="#1A1C1F"/>
</g>
<defs>
<clipPath id="clip0_184_410">
<rect width="28" height="28" fill="white"/>
</clipPath>
</defs>
</svg>

<svg xmlns="http://www.w3.org/2000/svg" width="28" height="28" fill="none"><g clip-path="url(#a)"><path fill="#1A1C1F" fill-rule="evenodd" d="M23.625 5.25c1.422 0 2.625 1.04 2.625 2.626v12.25c0 1.421-1.04 2.624-2.625 2.624H4.375c-1.395 0-2.625-1.093-2.625-2.46V7.876c0-1.395 1.04-2.625 2.625-2.625zm0 1.75H4.375c-.492 0-.875.329-.875.876v12.25c0 .438.328.874.766.874h19.359c.438 0 .875-.273.875-.875V7.875c0-.437-.273-.874-.875-.874m-17.5 10.5c0-.41.382-.86.875-.861l9.625-.014c.492 0 .875.384.875.875 0 .439-.273.875-.875.875H7a.863.863 0 0 1-.875-.875m0-3.5c0-.437.328-.874.875-.874h7c.492 0 .875.383.875.875 0 .438-.383.875-.875.875H7A.863.863 0 0 1 6.125 14m10.5 0c0-.437.273-.874.875-.874H21c.492 0 .875.383.875.875 0 .438-.273.875-.875.875h-3.5a.863.863 0 0 1-.875-.875m2.625 3.5c0-.437.383-.875.875-.875H21c.492 0 .875.384.875.875 0 .439-.383.875-.875.875h-.875a.863.863 0 0 1-.875-.875" clip-rule="evenodd"/></g><defs><clipPath id="a"><path fill="#fff" d="M0 0h28v28H0z"/></clipPath></defs></svg>
